public/avatar/body/257.svg

<svg xmlns:xlink="http://www.w3.org/1999/xlink" height="82" width="84.85" xmlns="http://www.w3.org/2000/svg"><g transform="translate(37.4 42.25)"><use height="38" transform="translate(-11.95 -17.45)" width="32.05" xlink:href="#a"/><use height="38.95" transform="translate(-12.45 -17.95)" width="33.05" xlink:href="#b"/><use height="9.65" transform="translate(-12.65 15.2)" width="32.6" xlink:href="#c"/><use height="10" transform="translate(-12.1 14.3)" width="31.6" xlink:href="#d"/><use height="6.45" transform="translate(-11.95 17.35)" width="31.55" xlink:href="#e"/><use height="6.15" transform="translate(-11.9 17.35)" width="22.1" xlink:href="#f"/><use height="16.1" transform="translate(-12 .45)" width="32" xlink:href="#g"/><use height="16.95" transform="translate(-11 1.2)" width="30.05" xlink:href="#h"/><use height="10.55" transform="translate(-4.85 6.8)" width="18.7" xlink:href="#i"/></g><defs><use height="38" width="32.05" xlink:href="#j" id="a"/><use height="38.95" width="33.05" xlink:href="#k" id="b"/><use height="9.65" width="32.6" xlink:href="#l" id="c"/><use height="10" width="31.6" xlink:href="#m" id="d"/><use height="6.45" width="31.55" xlink:href="#n" id="e"/><use height="6.15" width="22.1" xlink:href="#o" id="f"/><use height="16.1" width="32" xlink:href="#p" id="g"/><use height="16.95" width="30.05" xlink:href="#q" id="h"/><use height="10.55" width="18.7" xlink:href="#r" id="i"/><path d="M27.35 7.4q2.15 4.15 3.55 8.75 1.45 4.7 1.15 9.5-.35 4.95-4.2 8.1-3.8 3.2-8.75 4.05l-2.6.2q-3.6 0-7.05-1.15-4.65-1.6-7.1-5.5Q-.2 27.4.05 23q.2-4.4 2-9.3Q3.85 8.75 7 5.05 10.1 1.3 14.7.1l1.8-.1q1.9.05 3.7.8 4.75 2.05 7.15 6.6" fill="#fff" fill-rule="evenodd" transform="translate(-.05)" id="j"/><path d="M27.35 7.4Q24.95 2.85 20.2.8 17.55-.3 14.7.1 10.1 1.3 7 5.05q-3.15 3.7-4.95 8.65-1.8 4.9-2 9.3-.25 4.4 2.3 8.35 2.45 3.9 7.1 5.5 4.65 1.55 9.65.95 4.95-.85 8.75-4.05 3.85-3.15 4.2-8.1.3-4.8-1.15-9.5-1.4-4.6-3.55-8.75Z" fill="none" stroke="#000" stroke-linecap="round" stroke-linejoin="round" transform="translate(.45 .5)" id="k"/><path d="M26.95 1.55Q28.4.85 29.15 0l3.3 5.4q.6 1.6-1.1 2-3.7 1.1-4.05.85l-.95-2.65q-.2 2.8-1.15 3.1l-8.2.95h-1.4L7.45 8.7q-.6-.2-.95-1.65L6.25 5.6 5.3 8.25q-.35.25-4.05-.85-1.7-.45-1.05-2l2.05-3.3q.15-.55 1-1.3T5 .55L15.45 4.5h1.7q8.35-2.3 9.8-2.95" fill-rule="evenodd" id="l"/><path d="M30.3 4.35q1.55 2.55 1.25 3.2l-4.3 1.15q-.45.1-1.35-3.3-.9 3.75-1.4 3.8l-7.95.8h-1.1L7.1 9.15q-.3-.05-.6-2t-.55-2q-.3-.05-1.05 1.7l-1 1.65L.05 7.45Q-.25 6.8 1.5 4.3q1.05-1.5 2.05-2.65Q9 .2 15.3 0h1.4q6.3.2 11.8 1.65l1.8 2.7" fill-rule="evenodd" id="m"/><path d="M30.4.35q.4-.35.65-.35.95-.25.95 2.45-.25.7-2.4 1.65-.5.5-1 2.2l-.45 1.5q.45 1.4 1.2 2.4l2.65.65-2.4 3.95q-.25.4-1.3.85-.4.45-1.3.45-.95 0-2.15-1-1.05-.9-1.2-1.4l-.2-1.35-12.85-.2-2.8.05-.4.05L6.5 14q.4 1.85-1.6 1.85-.95 0-1.3-.5l-1.15-.55-.6-.6H1.8q-.4-.55-1.15-2.8-.05.55-.15-.2-.15-.75 2.8-1.8l.6-1.6q-.5-1-.5-1.5-.25-1.7-.95-2.2Q.25 3.15 0 2.45 0-.25 1 0l.65.35 1.15 1q9.5 5.7 14 4.9Q21.25 5.4 25.7 3L30.4.35" fill-rule="evenodd" id="p"/><path d="m30.05 1.45-2.7 2.4-.95 2.45.25 1.65.7 1.5q.5.7 1.25.7l1.45.25H30l-.9 1.45L27.35 14l-2.4 1.5-4.85 1.45H9.95L5.1 15.5 2.65 14q-.7-.4-2.6-3.55v-.05H0l1.45-.25q.95 0 1.2-.7 1.2-2.7.95-3.15l-.95-2.45L0 1.45V0l6.3 3.6q5.3 2.9 8.7 2.95 3.4-.05 8.75-2.95l6.3-3.6v1.45" fill-rule="evenodd" id="q"/><path d="m10.7 3.1.9.2-.6 2.95-2.55-.3-1.6-.35.7-3.05.95-.05.75.25.5 2.35.95-2m10.55 1.15.3 1.9-.9.1-3.6.2.55-2.25.85.35L20.3 5.8l.95-1.55M28.45 1l1.2-.65 1.8 3.25q.25.3-.05.9-.1.35-1.45.5l-1.5-4M2.3 0l.55.65 1.2.65-1.8 3.2L.3 4.05q-.5-.2-.2-.8L2.3 0m19.55 3.05 1.45-.3L22.9 6l-.85.05-.2-3" id="n" fill="#1f1f1f" fill-rule="evenodd"/><path d="m2.25 0 .55.75L1.05 4.3.15 4Q-.3 3.75.8 1.95L2.25 0m5.3 2.5 1.1.25L7.9 6l-1.4-.3q-.2 0-.2-1.1l1.25-2.1m13.35.75L22.1 3v3.1l-.6.05-.6-2.9" id="o" fill="#464646" fill-rule="evenodd"/><g id="r" fill-rule="evenodd"><path d="m10.8 4.6 3.9-1.7v.95l-4.3 1.8.4-1.05" fill="#fff"/><path d="M10.4 8.55q-1.8 2-2.45 2-.65 0-2.45-2-1-1.1-1.5-2-.55-.7-.55-1.95 0-2.65 2.35-2.65 1.6 0 2.15 1.3.5-1.3 2.1-1.3 2.35 0 2.35 2.65v.25l-.05.55-.3.9-1.65 2.25" fill="#fd1388"/><path d="m7.9 5.5.55.5-.3.7L3.2 8.95 3.05 8 7.9 5.5" fill="#fff"/><path d="m2.9 7 1 1.1.35 1.9L0 9.5 2.9 7m10.7-3.7.5-1.8L16.85 0v1.9l1.85 1.65-3 1.1-2.25-.45.15-.9" fill="#fff"/></g></defs></svg>

<?xml version="1.0" encoding="UTF-8" standalone="no"?>
<svg xmlns:xlink="http://www.w3.org/1999/xlink" height="82.0px" width="84.85px" xmlns="http://www.w3.org/2000/svg">
  <g transform="matrix(1.0, 0.0, 0.0, 1.0, 37.4, 42.25)">
    <use height="38.0" transform="matrix(1.0, 0.0, 0.0, 1.0, -11.95, -17.45)" width="32.05" xlink:href="#sprite0"/>
    <use height="38.95" transform="matrix(1.0, 0.0, 0.0, 1.0, -12.45, -17.95)" width="33.05" xlink:href="#sprite1"/>
    <use height="9.65" transform="matrix(1.0, 0.0, 0.0, 1.0, -12.65, 15.2)" width="32.6" xlink:href="#sprite2"/>
    <use height="10.0" transform="matrix(1.0, 0.0, 0.0, 1.0, -12.1, 14.3)" width="31.6" xlink:href="#sprite3"/>
    <use height="6.45" transform="matrix(1.0, 0.0, 0.0, 1.0, -11.95, 17.35)" width="31.55" xlink:href="#sprite4"/>
    <use height="6.15" transform="matrix(1.0, 0.0, 0.0, 1.0, -11.9, 17.35)" width="22.1" xlink:href="#sprite5"/>
    <use height="16.1" transform="matrix(1.0, 0.0, 0.0, 1.0, -12.0, 0.45)" width="32.0" xlink:href="#sprite6"/>
    <use height="16.95" transform="matrix(1.0, 0.0, 0.0, 1.0, -11.0, 1.2)" width="30.05" xlink:href="#sprite7"/>
    <use height="10.55" transform="matrix(1.0, 0.0, 0.0, 1.0, -4.85, 6.8)" width="18.7" xlink:href="#sprite8"/>
  </g>
  <defs>
    <g id="sprite0" transform="matrix(1.0, 0.0, 0.0, 1.0, -0.05, 0.0)">
      <use height="38.0" transform="matrix(1.0, 0.0, 0.0, 1.0, 0.05, 0.0)" width="32.05" xlink:href="#shape0"/>
    </g>
    <g id="shape0" transform="matrix(1.0, 0.0, 0.0, 1.0, -0.05, 0.0)">
      <path d="M27.35 7.4 Q29.5 11.55 30.9 16.15 32.35 20.85 32.05 25.65 31.7 30.6 27.85 33.75 24.05 36.95 19.1 37.8 L16.5 38.0 Q12.9 38.0 9.45 36.85 4.8 35.25 2.35 31.35 -0.2 27.4 0.05 23.0 0.25 18.6 2.05 13.7 3.85 8.75 7.0 5.05 10.1 1.3 14.7 0.1 L16.5 0.0 Q18.4 0.05 20.2 0.8 24.95 2.85 27.35 7.4" fill="#ffffff" fill-rule="evenodd" stroke="none"/>
    </g>
    <g id="sprite1" transform="matrix(1.0, 0.0, 0.0, 1.0, 0.45, 0.5)">
      <use height="38.95" transform="matrix(1.0, 0.0, 0.0, 1.0, -0.45, -0.5)" width="33.05" xlink:href="#shape1"/>
    </g>
    <g id="shape1" transform="matrix(1.0, 0.0, 0.0, 1.0, 0.45, 0.5)">
      <path d="M27.35 7.4 Q24.95 2.85 20.2 0.8 17.55 -0.3 14.7 0.1 10.1 1.3 7.0 5.05 3.85 8.75 2.05 13.7 0.25 18.6 0.05 23.0 -0.2 27.4 2.35 31.35 4.8 35.25 9.45 36.85 14.1 38.4 19.1 37.8 24.05 36.95 27.85 33.75 31.7 30.6 32.05 25.65 32.35 20.85 30.9 16.15 29.5 11.55 27.35 7.4 Z" fill="none" stroke="#000000" stroke-linecap="round" stroke-linejoin="round" stroke-width="1.0"/>
    </g>
    <g id="sprite2" transform="matrix(1.0, 0.0, 0.0, 1.0, 0.0, 0.0)">
      <use height="9.65" transform="matrix(1.0, 0.0, 0.0, 1.0, 0.0, 0.0)" width="32.6" xlink:href="#shape2"/>
    </g>
    <g id="shape2" transform="matrix(1.0, 0.0, 0.0, 1.0, 0.0, 0.0)">
      <path d="M26.95 1.55 Q28.4 0.85 29.15 0.0 L32.45 5.4 Q33.05 7.0 31.35 7.4 27.65 8.5 27.3 8.25 L26.35 5.6 Q26.15 8.4 25.2 8.7 L17.0 9.65 15.6 9.65 7.45 8.7 Q6.85 8.5 6.5 7.05 L6.25 5.6 5.3 8.25 Q4.95 8.5 1.25 7.4 -0.45 6.95 0.2 5.4 L2.25 2.1 Q2.4 1.55 3.25 0.8 4.1 0.05 5.0 0.55 L15.45 4.5 17.15 4.5 Q25.5 2.2 26.95 1.55" fill="#000000" fill-rule="evenodd" stroke="none"/>
    </g>
    <g id="sprite3" transform="matrix(1.0, 0.0, 0.0, 1.0, 0.0, 0.0)">
      <use height="10.0" transform="matrix(1.0, 0.0, 0.0, 1.0, 0.0, 0.0)" width="31.6" xlink:href="#shape3"/>
    </g>
    <g id="shape3" transform="matrix(1.0, 0.0, 0.0, 1.0, 0.0, 0.0)">
      <path d="M30.3 4.35 Q31.85 6.9 31.55 7.55 L27.25 8.7 Q26.8 8.8 25.9 5.4 25.0 9.15 24.5 9.2 L16.55 10.0 15.45 10.0 7.1 9.15 Q6.8 9.1 6.5 7.15 6.2 5.2 5.95 5.15 5.65 5.1 4.9 6.85 L3.9 8.5 0.05 7.45 Q-0.25 6.8 1.5 4.3 2.55 2.8 3.55 1.65 9.0 0.2 15.3 0.0 L16.7 0.0 Q23.0 0.2 28.5 1.65 L30.3 4.35" fill="#000000" fill-rule="evenodd" stroke="none"/>
    </g>
    <g id="sprite4" transform="matrix(1.0, 0.0, 0.0, 1.0, 0.0, 0.0)">
      <use height="6.45" transform="matrix(1.0, 0.0, 0.0, 1.0, 0.0, 0.0)" width="31.55" xlink:href="#shape4"/>
    </g>
    <g id="shape4" transform="matrix(1.0, 0.0, 0.0, 1.0, 0.0, 0.0)">
      <path d="M10.7 3.1 L11.6 3.3 11.0 6.25 8.45 5.95 6.85 5.6 7.55 2.55 8.5 2.5 9.25 2.75 9.75 5.1 10.7 3.1" fill="#1f1f1f" fill-rule="evenodd" stroke="none"/>
      <path d="M21.25 4.25 L21.55 6.15 20.65 6.25 17.05 6.45 17.6 4.2 18.45 4.55 20.3 5.8 21.25 4.25" fill="#1f1f1f" fill-rule="evenodd" stroke="none"/>
      <path d="M28.45 1.0 L29.65 0.35 31.45 3.6 Q31.7 3.9 31.4 4.5 31.3 4.85 29.95 5.0 L28.45 1.0" fill="#1f1f1f" fill-rule="evenodd" stroke="none"/>
      <path d="M2.3 0.0 L2.85 0.65 4.05 1.3 2.25 4.5 0.3 4.05 Q-0.2 3.85 0.1 3.25 L2.3 0.0" fill="#1f1f1f" fill-rule="evenodd" stroke="none"/>
      <path d="M21.85 3.05 L23.3 2.75 22.9 6.0 22.05 6.05 21.85 3.05" fill="#1f1f1f" fill-rule="evenodd" stroke="none"/>
    </g>
    <g id="sprite5" transform="matrix(1.0, 0.0, 0.0, 1.0, 0.0, 0.0)">
      <use height="6.15" transform="matrix(1.0, 0.0, 0.0, 1.0, 0.0, 0.0)" width="22.1" xlink:href="#shape5"/>
    </g>
    <g id="shape5" transform="matrix(1.0, 0.0, 0.0, 1.0, 0.0, 0.0)">
      <path d="M2.25 0.0 L2.8 0.75 1.05 4.3 0.15 4.0 Q-0.3 3.75 0.8 1.95 L2.25 0.0" fill="#464646" fill-rule="evenodd" stroke="none"/>
      <path d="M7.55 2.5 L8.65 2.75 7.9 6.0 6.5 5.7 Q6.3 5.7 6.3 4.6 L7.55 2.5" fill="#464646" fill-rule="evenodd" stroke="none"/>
      <path d="M20.9 3.25 L22.1 3.0 22.1 6.1 21.5 6.15 20.9 3.25" fill="#464646" fill-rule="evenodd" stroke="none"/>
    </g>
    <g id="sprite6" transform="matrix(1.0, 0.0, 0.0, 1.0, 0.0, 0.0)">
      <use height="16.1" transform="matrix(1.0, 0.0, 0.0, 1.0, 0.0, 0.0)" width="32.0" xlink:href="#shape6"/>
    </g>
    <g id="shape6" transform="matrix(1.0, 0.0, 0.0, 1.0, 0.0, 0.0)">
      <path d="M30.4 0.35 Q30.8 0.0 31.05 0.0 32.0 -0.25 32.0 2.45 31.75 3.15 29.6 4.1 29.1 4.6 28.6 6.3 L28.15 7.8 Q28.6 9.2 29.35 10.2 L32.0 10.85 29.6 14.8 Q29.35 15.2 28.3 15.65 27.9 16.1 27.0 16.1 26.05 16.1 24.85 15.1 23.8 14.2 23.65 13.7 L23.45 12.35 10.6 12.15 7.8 12.2 7.4 12.25 6.5 14.0 Q6.9 15.85 4.9 15.85 3.95 15.85 3.6 15.35 L2.45 14.8 1.85 14.2 1.8 14.2 Q1.4 13.65 0.65 11.4 0.6 11.95 0.5 11.2 0.35 10.45 3.3 9.4 L3.9 7.8 Q3.4 6.8 3.4 6.3 3.15 4.6 2.45 4.1 0.25 3.15 0.0 2.45 0.0 -0.25 1.0 0.0 L1.65 0.35 2.8 1.35 Q12.3 7.05 16.8 6.25 21.25 5.4 25.7 3.0 L30.4 0.35" fill="#000000" fill-rule="evenodd" stroke="none"/>
    </g>
    <g id="sprite7" transform="matrix(1.0, 0.0, 0.0, 1.0, 0.0, 0.0)">
      <use height="16.95" transform="matrix(1.0, 0.0, 0.0, 1.0, 0.0, 0.0)" width="30.05" xlink:href="#shape7"/>
    </g>
    <g id="shape7" transform="matrix(1.0, 0.0, 0.0, 1.0, 0.0, 0.0)">
      <path d="M30.05 1.45 L27.35 3.85 26.4 6.3 26.65 7.95 27.35 9.45 Q27.85 10.15 28.6 10.15 L30.05 10.4 30.0 10.4 29.1 11.85 27.35 14.0 24.95 15.5 20.1 16.95 9.95 16.95 5.1 15.5 2.65 14.0 Q1.95 13.6 0.05 10.45 L0.05 10.4 0.0 10.4 1.45 10.15 Q2.4 10.15 2.65 9.45 3.85 6.75 3.6 6.3 L2.65 3.85 0.0 1.45 0.0 0.0 6.3 3.6 Q11.6 6.5 15.0 6.55 18.4 6.5 23.75 3.6 L30.05 0.0 30.05 1.45" fill="#000000" fill-rule="evenodd" stroke="none"/>
    </g>
    <g id="sprite8" transform="matrix(1.0, 0.0, 0.0, 1.0, 0.0, 0.0)">
      <use height="10.55" transform="matrix(1.0, 0.0, 0.0, 1.0, 0.0, 0.0)" width="18.7" xlink:href="#shape8"/>
    </g>
    <g id="shape8" transform="matrix(1.0, 0.0, 0.0, 1.0, 0.0, 0.0)">
      <path d="M10.8 4.6 L14.7 2.9 14.7 3.85 10.4 5.65 10.8 4.6" fill="#ffffff" fill-rule="evenodd" stroke="none"/>
      <path d="M10.4 8.55 Q8.6 10.55 7.95 10.55 7.3 10.55 5.5 8.55 4.5 7.45 4.0 6.55 3.45 5.85 3.45 4.6 3.45 1.95 5.8 1.95 7.4 1.95 7.95 3.25 8.45 1.95 10.05 1.95 12.4 1.95 12.4 4.6 L12.4 4.85 12.35 5.4 12.05 6.3 10.4 8.55" fill="#fd1388" fill-rule="evenodd" stroke="none"/>
      <path d="M7.9 5.5 L8.45 6.0 8.15 6.7 3.2 8.95 3.05 8.0 7.9 5.5" fill="#ffffff" fill-rule="evenodd" stroke="none"/>
      <path d="M2.9 7.0 L3.9 8.1 4.25 10.0 0.0 9.5 2.9 7.0" fill="#ffffff" fill-rule="evenodd" stroke="none"/>
      <path d="M13.6 3.3 L14.1 1.5 16.85 0.0 16.85 1.9 18.7 3.55 15.7 4.65 13.45 4.2 13.6 3.3" fill="#ffffff" fill-rule="evenodd" stroke="none"/>
    </g>
  </defs>
</svg>
